Porphyrin.svg

<?xml version="1.0" encoding="UTF-8" standalone="no"?>
<!-- Created with Inkscape (http://www.inkscape.org/) -->
<svg
   xmlns:svg="http://www.w3.org/2000/svg"
   xmlns="http://www.w3.org/2000/svg"
   version="1.0"
   width="725"
   height="727"
   id="svg2">
  <defs
     id="defs5" />
  <path
     d="M 303.34296,680.57124 L 244.35892,645.8814 L 233.21447,651.47314 C 227.08502,654.54857 198.71201,668.95041 170.16334,683.47717 C 139.23653,699.21401 117.92297,709.75763 117.43106,709.56334 C 115.99635,708.99666 18.28404,609.25351 18.2452,608.31596 C 18.22481,607.82397 32.49885,579.67499 49.96529,545.76265 C 67.43172,511.85037 81.71338,483.83975 81.70231,483.51685 C 81.69124,483.19395 66.11619,456.44519 47.09109,424.07517 C 28.06599,391.70514 12.5,365.11734 12.5,364.99117 C 12.5,364.865 28.07114,337.04076 47.10254,303.15953 C 66.13394,269.27829 81.70898,241.30606 81.71376,240.999 C 81.71853,240.69196 67.35934,213.54006 49.80445,180.66147 C 26.87831,137.72304 18.00836,120.63119 18.31912,119.99118 C 18.92093,118.75175 116.4146,19.67353 117.42532,19.27421 C 117.9102,19.08265 144.00085,32.0421 181.28186,50.9923 L 244.31855,83.03428 L 245.96963,82.02441 C 246.87772,81.46898 273.54882,65.7923 305.23874,47.18734 L 362.85677,13.36015 L 364.49459,14.31176 C 384.18416,25.75182 484.26496,82.71795 484.67991,82.7214 C 484.99859,82.72405 512.62774,68.37266 546.07804,50.82942 C 583.49355,31.20659 607.22291,19.05924 607.74442,19.26168 C 608.76362,19.65729 705.04682,117.98202 706.0807,119.68301 C 706.74551,120.77671 704.29813,125.63926 675.25738,180.92472 L 643.71196,240.9784 L 645.26049,243.71418 C 662.3993,273.99294 712.67816,365.03097 712.49953,365.46137 C 712.36541,365.78453 696.83989,392.46944 677.99843,424.76116 L 643.74121,483.47339 L 651.76543,499.23871 C 656.17874,507.90963 670.37584,535.73803 683.31455,561.07958 C 696.2532,586.42114 706.87315,607.48594 706.91447,607.89024 C 706.95573,608.29454 695.97394,619.85226 682.51052,633.57407 C 669.0471,647.29587 646.9077,669.93118 633.31185,683.87478 C 619.716,697.81834 608.22265,709.37524 607.771,709.55671 C 607.27988,709.75399 581.6103,697.00643 543.90145,677.83884 C 487.28326,649.05963 480.74143,645.86297 479.75861,646.49565 C 475.86674,649.00114 363.04774,715.3254 362.72649,715.2967 C 362.50677,715.2771 335.78418,699.65065 303.34296,680.57124 z M 421.85467,675.48693 L 478.66418,641.9891 L 487.54322,592.08736 C 492.42669,564.6414 496.65209,541.28296 496.93299,540.17977 C 497.68034,537.24465 500.89941,536.68748 501.48708,539.39151 C 501.62612,540.03125 497.63304,563.42802 492.61357,591.38428 L 483.48725,642.21384 L 544.88939,673.41988 L 606.29156,704.62591 L 618.33659,692.44699 C 624.96134,685.74857 646.47741,663.81646 666.15014,643.70899 L 701.91877,607.14992 L 671.0649,546.67073 C 654.09527,513.40718 640.19118,486.16328 640.16688,486.12873 C 640.14264,486.09419 617.37181,489.57538 589.56505,493.86472 C 561.75828,498.15406 538.47318,501.54548 537.82039,501.4012 C 535.46684,500.88108 535.63868,497.58818 538.051,496.98274 C 538.80452,496.79361 562.00846,493.1763 589.61528,488.94428 C 617.22214,484.71226 639.90703,481.13844 640.02619,481.00247 C 640.76412,480.16046 707.41059,365.40206 707.41744,364.96168 C 707.42418,364.52592 640.74656,244.33092 640.03619,243.49826 C 639.9266,243.36981 617.21067,240.15475 589.55646,236.35368 C 561.90218,232.55261 538.68139,229.29342 537.95466,229.11102 C 535.6121,228.52308 535.5292,225.22337 537.84409,224.70832 C 538.48383,224.56598 561.75828,227.59588 589.56505,231.44145 C 617.37181,235.28702 640.14226,238.40236 640.16607,238.36444 C 641.81273,235.7392 701.30783,121.51995 701.18823,121.21346 C 700.94066,120.57898 606.68292,24.37642 606.30885,24.37642 C 606.09944,24.37642 488.10821,86.04239 487.294,86.57738 C 487.25643,86.60206 490.73964,109.1286 495.03445,136.63636 C 499.32926,164.14413 502.72582,187.17392 502.58236,187.81369 C 502.06525,190.11989 498.76615,190.04789 498.1813,187.71763 C 498.00091,186.99894 494.37669,164.0247 490.12746,136.66379 C 485.87823,109.30286 482.29457,86.82906 482.16378,86.722 C 481.19928,85.93254 363.29499,18.80233 362.87063,18.80102 C 362.57163,18.80011 336.28111,34.10572 304.44726,52.8135 L 246.56751,86.82765 L 237.54098,136.46725 C 232.57638,163.76903 228.35088,186.75261 228.15099,187.54187 C 227.52586,190.01007 224.23905,190.22907 223.71535,187.83742 C 223.5724,187.1846 227.56317,164.14438 232.5837,136.63694 L 241.71196,86.62339 L 180.5178,55.5104 C 146.861,38.39826 119.16025,24.39269 118.96056,24.38692 C 118.55264,24.37512 23.74202,120.49067 23.47134,121.1904 C 23.35366,121.49461 84.67766,237.20092 85.57,238.35834 C 85.59666,238.39291 108.49177,235.15674 136.44803,231.16685 C 164.40429,227.17696 187.80103,224.02748 188.4408,224.168 C 190.79406,224.68489 190.66288,227.98193 188.26511,228.58373 C 187.50262,228.77511 164.16467,232.15146 136.40301,236.08674 C 108.64135,240.02202 85.83256,243.35205 85.7168,243.4868 C 84.9855,244.3381 17.77264,364.52336 17.78272,364.96168 C 17.79291,365.40406 84.98209,480.18459 85.70756,480.99894 C 85.82698,481.13299 108.65515,484.83393 136.43684,489.22326 C 164.21852,493.6126 187.54637,497.35381 188.2765,497.53706 C 190.65219,498.13332 190.79265,501.42788 188.46453,501.94737 C 187.81171,502.09304 164.40429,498.57819 136.44803,494.13661 C 108.49177,489.69502 85.59828,486.09037 85.57361,486.12627 C 84.46868,487.73419 23.34282,607.30856 23.46427,607.62451 C 23.73799,608.33651 118.5439,704.46119 118.96056,704.44918 C 119.16025,704.44342 146.8607,690.438 180.51713,673.32605 L 241.71063,642.21335 L 232.85569,591.38406 C 227.98547,563.42791 224.11464,540.03125 224.25386,539.39151 C 224.77508,536.99621 228.06615,537.18034 228.6883,539.63962 C 228.89127,540.44191 232.99718,563.80307 237.81254,591.55329 L 246.56774,642.00824 L 304.71918,676.17566 C 356.7563,706.75053 362.98495,710.27169 363.95789,709.66391 C 364.55589,709.29038 390.60944,693.91077 421.85467,675.48693 z M 363.27897,688.28663 C 362.31689,687.76338 338.30737,673.75807 309.92448,657.16371 C 277.03929,637.93704 258.21639,626.62803 258.03575,625.98834 C 257.34793,623.55287 259.09787,622.50002 261.65366,623.81164 C 267.49294,626.80835 365.76367,684.6444 366.54014,685.54134 C 367.71016,686.89286 367.72396,687.29695 366.63722,688.38372 C 365.5676,689.45332 365.41609,689.44897 363.27897,688.28663 z M 122.3136,681.22458 C 121.20264,680.84801 47.66413,605.60933 47.17381,604.34761 C 46.37774,602.29915 48.09733,600.68935 49.9961,601.70551 C 51.37243,602.44213 124.15634,676.72472 124.94106,678.19372 C 125.74751,679.70334 125.74349,679.75047 124.72111,680.77288 C 123.83656,681.65742 123.67813,681.68716 122.3136,681.22458 z M 600.16151,680.3526 C 598.81842,679.65164 576.92561,668.47914 551.51083,655.52477 C 526.09604,642.57046 505.27136,631.95198 505.23376,631.92817 C 505.19615,631.9043 505.00437,631.36018 504.80758,630.71897 C 504.36962,629.29188 505.86277,627.59776 507.13903,628.07371 C 510.45507,629.31031 603.35078,677.09211 604.10719,677.95018 C 605.27736,679.27767 605.29139,679.68572 604.20429,680.77288 C 603.10805,681.86911 603.05695,681.86378 600.16151,680.3526 z M 675.18704,605.16137 C 674.4701,604.95811 662.31966,581.38178 634.009,525.26067 C 629.34676,516.01859 625.85708,508.47501 626.03246,508.01796 C 626.494,506.81525 627.90918,506.45639 629.08555,507.2438 C 629.94394,507.81842 678.41577,602.29399 678.44078,603.44127 C 678.45187,603.94945 676.82489,605.53316 676.37139,605.45564 C 676.16851,605.42096 675.63553,605.28853 675.18704,605.16137 z M 200.59657,502.5005 L 200.59657,477.76525 L 204.04487,477.76525 L 207.49317,477.76525 L 220.21791,496.86877 L 232.94265,515.97229 L 233.08551,496.86877 L 233.22838,477.76525 L 236.48321,477.76525 L 239.73805,477.76525 L 239.73805,502.5005 L 239.73805,527.23574 L 236.28975,527.23574 L 232.84145,527.23574 L 220.11671,508.13222 L 207.39196,489.0287 L 207.2491,508.13222 L 207.10624,527.23574 L 203.8514,527.23574 L 200.59657,527.23574 L 200.59657,502.5005 z M 437.07635,502.5005 L 437.07635,477.76525 L 440.33815,477.76525 L 443.59994,477.76525 L 443.59994,487.82244 L 443.59994,497.87963 L 456.6471,497.87963 L 469.69426,497.87963 L 469.69426,487.82244 L 469.69426,477.76525 L 472.95605,477.76525 L 476.21784,477.76525 L 476.21784,502.5005 L 476.21784,527.23574 L 472.95605,527.23574 L 469.69426,527.23574 L 469.69426,515.54766 L 469.69426,503.85958 L 456.6471,503.85958 L 443.59994,503.85958 L 443.59994,515.54766 L 443.59994,527.23574 L 440.33815,527.23574 L 437.07635,527.23574 L 437.07635,502.5005 z M 486.54684,502.5005 L 486.54684,477.76525 L 489.99514,477.76525 L 493.44344,477.76525 L 506.16818,496.86877 L 518.89292,515.97229 L 519.03579,496.86877 L 519.17865,477.76525 L 522.43348,477.76525 L 525.68832,477.76525 L 525.68832,502.5005 L 525.68832,527.23574 L 522.24002,527.23574 L 518.79172,527.23574 L 506.06698,508.13222 L 493.34224,489.0287 L 493.19937,508.13222 L 493.05651,527.23574 L 489.80168,527.23574 L 486.54684,527.23574 L 486.54684,502.5005 z M 142.34544,518.54592 C 118.23075,514.73396 97.88126,511.45964 97.12434,511.26967 C 94.88911,510.70867 94.58062,507.54219 96.69579,506.87085 C 97.20162,506.71031 117.90517,509.75892 142.70368,513.64555 C 167.50219,517.53218 187.96448,520.71216 188.17544,520.71216 C 188.83607,520.71216 190.26756,522.38602 190.26756,523.1585 C 190.26756,524.30712 188.68353,525.61158 187.37467,525.5408 C 186.72328,525.50558 166.46013,522.35789 142.34544,518.54592 z M 38.88651,368.70982 C 38.40651,368.22981 38.15156,367.40299 38.31995,366.87243 C 38.48835,366.34188 52.50196,341.19341 69.46132,310.98697 C 89.57016,275.17096 100.6457,255.96669 101.30031,255.7802 C 103.93489,255.02969 104.77144,256.8567 103.2033,259.9363 C 99.19013,267.81756 42.61388,367.85794 41.73263,368.63119 C 40.39492,369.80496 39.99277,369.81606 38.88651,368.70982 z M 683.88514,369.21326 C 683.43665,369.07953 669.85945,345.35219 653.71359,316.48584 C 619.46789,255.25973 621.24779,258.53892 621.66726,257.44583 C 622.11331,256.28339 623.41634,255.85801 624.59645,256.48957 C 625.5807,257.01632 687.14693,366.25165 687.14693,367.47122 C 687.14693,368.00987 685.53507,369.59908 685.0695,369.51948 C 684.86662,369.4848 684.33364,369.347 683.88514,369.21326 z M 200.59657,219.81201 L 200.59657,195.07677 L 204.04487,195.07677 L 207.49317,195.07677 L 220.21791,214.18029 L 232.94265,233.28381 L 233.08551,214.18029 L 233.22838,195.07677 L 236.48321,195.07677 L 239.73805,195.07677 L 239.73805,219.81201 L 239.73805,244.54726 L 236.28975,244.54726 L 232.84145,244.54726 L 220.11671,225.44374 L 207.39196,206.34022 L 207.2491,225.44374 L 207.10624,244.54726 L 203.8514,244.54726 L 200.59657,244.54726 L 200.59657,219.81201 z M 250.06705,219.81201 L 250.06705,195.07677 L 253.32884,195.07677 L 256.59063,195.07677 L 256.59063,205.13396 L 256.59063,215.19114 L 269.63779,215.19114 L 282.68495,215.19114 L 282.68495,205.13396 L 282.68495,195.07677 L 285.94674,195.07677 L 289.20853,195.07677 L 289.20853,219.81201 L 289.20853,244.54726 L 285.94674,244.54726 L 282.68495,244.54726 L 282.68495,232.85917 L 282.68495,221.17109 L 269.63779,221.17109 L 256.59063,221.17109 L 256.59063,232.85917 L 256.59063,244.54726 L 253.32884,244.54726 L 250.06705,244.54726 L 250.06705,219.81201 z M 486.54684,219.81201 L 486.54684,195.07677 L 489.99514,195.07677 L 493.44344,195.07677 L 506.16818,214.18029 L 518.89292,233.28381 L 519.03579,214.18029 L 519.17865,195.07677 L 522.43348,195.07677 L 525.68832,195.07677 L 525.68832,219.81201 L 525.68832,244.54726 L 522.24002,244.54726 L 518.79172,244.54726 L 506.06698,225.44374 L 493.34224,206.34022 L 493.19937,225.44374 L 493.05651,244.54726 L 489.80168,244.54726 L 486.54684,244.54726 L 486.54684,219.81201 z M 522.73718,188.78618 C 522.26732,188.31633 521.8829,187.75324 521.8829,187.53488 C 521.8829,187.31652 518.70129,167.10401 514.81267,142.61818 C 510.92404,118.13236 507.87542,97.67949 508.03796,97.16738 C 508.62889,95.30554 511.74933,95.26748 512.33437,97.11497 C 512.60933,97.98323 526.77558,186.6816 526.77558,187.53488 C 526.77558,188.20642 525.10946,189.64045 524.32924,189.64045 C 523.92348,189.64045 523.20703,189.25603 522.73718,188.78618 z M 47.58462,126.79371 C 47.0282,126.23729 46.84359,125.50604 47.07525,124.77612 C 47.53197,123.33714 121.13587,48.02265 122.50194,47.59647 C 124.67645,46.91809 126.0275,48.60861 124.93912,50.64603 C 124.15437,52.11504 51.36904,126.39579 49.99246,127.13251 C 48.68923,127.82998 48.6097,127.81879 47.58462,126.79371 z M 675.18704,127.26435 C 674.07466,126.88791 601.08063,52.19566 600.59087,50.93272 C 599.79668,48.88473 601.51315,47.27159 603.40759,48.28548 C 604.77929,49.01958 677.03022,122.767 677.81397,124.233 C 678.621,125.74251 678.61703,125.78971 677.59456,126.81216 C 676.71013,127.6966 676.55204,127.7263 675.18704,127.26435 z M 258.51372,105.04844 C 257.95746,104.49218 257.77074,103.75294 257.99879,103.00982 C 258.19558,102.36858 258.38736,101.82802 258.42497,101.80857 C 258.46257,101.78912 281.97823,87.9829 310.68199,71.1281 C 339.38574,54.27329 363.51437,40.15812 364.30117,39.76107 C 366.67105,38.5651 368.66046,40.13203 367.50745,42.28645 C 366.92518,43.37444 261.07533,105.87608 259.75535,105.91132 C 259.55245,105.91674 258.99372,105.52844 258.51372,105.04844 z "
     style="fill:#000000"
     id="path1394" />
</svg>

<?xml version="1.0"?>
<svg xmlns:rdf="http://www.w3.org/1999/02/22-rdf-syntax-ns#" xmlns="http://www.w3.org/2000/svg" xmlns:cc="http://web.resource.org/cc/" xmlns:dc="http://purl.org/dc/elements/1.1/" id="svg2" height="727" width="725" version="1.0">
 <path id="path1394" d="m303.34 680.57l-58.98-34.69-11.15 5.59c-6.12 3.08-34.5 17.48-63.05 32.01-30.92 15.73-52.24 26.28-52.73 26.08-1.43-0.56-99.146-100.31-99.185-101.24-0.02-0.5 14.254-28.65 31.72-62.56 17.467-33.91 31.748-61.92 31.737-62.24-0.011-0.33-15.586-27.07-34.611-59.44s-34.591-58.96-34.591-59.09 15.571-27.95 34.603-61.83c19.031-33.88 34.606-61.85 34.611-62.16s-14.355-27.46-31.91-60.34c-22.926-42.94-31.796-60.03-31.485-60.67 0.602-1.24 98.091-100.32 99.111-100.72 0.48-0.187 26.57 12.772 63.85 31.722l63.04 32.042 1.65-1.01c0.91-0.555 27.58-16.232 59.27-34.837l57.62-33.827 1.63 0.952c19.69 11.44 119.77 68.406 120.19 68.409 0.32 0.003 27.95-14.348 61.4-31.892 37.41-19.622 61.14-31.77 61.66-31.567 1.02 0.395 97.31 98.718 98.34 100.42 0.67 1.1-1.78 5.96-30.82 61.24l-31.55 60.06 1.55 2.73c17.14 30.28 67.42 121.32 67.24 121.75-0.13 0.32-15.66 27.01-34.5 59.3l-34.26 58.71 8.03 15.77c4.41 8.67 18.61 36.5 31.54 61.84 12.94 25.34 23.56 46.41 23.6 46.81 0.05 0.4-10.94 11.96-24.4 25.68-13.46 13.73-35.6 36.36-49.2 50.3-13.59 13.95-25.09 25.51-25.54 25.69-0.49 0.19-26.16-12.55-63.87-31.72-56.62-28.78-63.16-31.98-64.14-31.34-3.89 2.5-116.71 68.83-117.03 68.8-0.22-0.02-26.95-15.65-59.39-34.73zm118.51-5.08l56.81-33.5 8.88-49.9c4.89-27.45 9.11-50.81 9.39-51.91 0.75-2.94 3.97-3.49 4.56-0.79 0.14 0.64-3.86 24.04-8.88 51.99l-9.12 50.83 61.4 31.21 61.4 31.21 12.05-12.18c6.62-6.7 28.14-28.63 47.81-48.74l35.77-36.56-30.86-60.48c-16.96-33.26-30.87-60.51-30.89-60.54-0.03-0.04-22.8 3.45-50.6 7.73-27.81 4.29-51.1 7.69-51.75 7.54-2.35-0.52-2.18-3.81 0.23-4.42 0.75-0.19 23.96-3.8 51.57-8.04 27.6-4.23 50.29-7.8 50.41-7.94 0.73-0.84 67.38-115.6 67.39-116.04 0-0.43-66.67-120.63-67.38-121.46-0.11-0.13-22.83-3.35-50.48-7.15-27.66-3.8-50.88-7.06-51.61-7.24-2.34-0.59-2.42-3.89-0.11-4.4 0.64-0.14 23.92 2.89 51.73 6.73 27.8 3.85 50.57 6.96 50.6 6.92 1.64-2.62 61.14-116.84 61.02-117.15-0.25-0.63-94.51-96.834-94.88-96.834-0.21 0-118.2 61.666-119.02 62.201-0.03 0.025 3.45 22.553 7.74 50.063 4.3 27.5 7.7 50.53 7.55 51.17-0.51 2.31-3.81 2.24-4.4-0.09-0.18-0.72-3.8-23.7-8.05-51.06s-7.84-49.831-7.97-49.938c-0.96-0.789-118.87-67.92-119.29-67.921-0.3-0.001-26.59 15.305-58.42 34.013l-57.88 34.014-9.03 49.642c-4.96 27.3-9.19 50.28-9.39 51.07-0.62 2.47-3.91 2.69-4.43 0.3-0.15-0.66 3.84-23.7 8.86-51.2l9.13-50.017-61.19-31.113c-33.66-17.112-61.36-31.117-61.56-31.123-0.41-0.012-95.218 96.103-95.489 96.803-0.117 0.3 61.207 116.01 62.099 117.17 0.027 0.03 22.92-3.2 50.88-7.19 27.95-3.99 51.35-7.14 51.99-7 2.35 0.51 2.22 3.81-0.17 4.41-0.77 0.2-24.11 3.57-51.87 7.51-27.76 3.93-50.567 7.26-50.683 7.4-0.731 0.85-67.944 121.03-67.934 121.47s67.199 115.22 67.925 116.04c0.119 0.13 22.952 3.83 50.732 8.22s51.11 8.13 51.84 8.32c2.37 0.59 2.51 3.89 0.18 4.41-0.65 0.14-24.06-3.37-52.01-7.81-27.96-4.44-50.852-8.05-50.876-8.01-1.105 1.6-62.231 121.18-62.11 121.49 0.274 0.72 95.076 96.84 95.496 96.83 0.2-0.01 27.9-14.01 61.56-31.12l61.19-31.12-8.85-50.83c-4.87-27.95-8.75-51.35-8.61-51.99 0.53-2.39 3.82-2.21 4.44 0.25 0.2 0.8 4.31 24.16 9.12 51.91l8.76 50.46 58.15 34.17c52.04 30.57 58.26 34.09 59.24 33.48 0.6-0.37 26.65-15.75 57.89-34.17zm-58.57 12.8c-0.96-0.53-24.97-14.53-53.36-31.13-32.88-19.22-51.7-30.53-51.88-31.17-0.69-2.44 1.06-3.49 3.61-2.18 5.84 3 104.11 60.83 104.89 61.73 1.17 1.35 1.18 1.76 0.1 2.84-1.07 1.07-1.22 1.07-3.36-0.09zm-240.97-7.07c-1.11-0.37-74.646-75.61-75.136-76.87-0.796-2.05 0.923-3.66 2.822-2.64 1.376 0.73 74.164 75.01 74.944 76.48 0.81 1.51 0.8 1.56-0.22 2.58-0.88 0.89-1.04 0.92-2.41 0.45zm477.85-0.87c-1.34-0.7-23.23-11.87-48.65-24.83-25.41-12.95-46.24-23.57-46.28-23.59-0.03-0.03-0.23-0.57-0.42-1.21-0.44-1.43 1.05-3.12 2.33-2.65 3.32 1.24 96.21 49.02 96.97 49.88 1.17 1.33 1.18 1.74 0.09 2.82-1.09 1.1-1.14 1.09-4.04-0.42zm75.03-75.19c-0.72-0.2-12.87-23.78-41.18-79.9-4.66-9.24-8.15-16.78-7.98-17.24 0.46-1.2 1.88-1.56 3.06-0.78 0.85 0.58 49.33 95.05 49.35 96.2 0.01 0.51-1.62 2.09-2.07 2.02-0.2-0.04-0.73-0.17-1.18-0.3zm-474.59-102.66v-24.73h3.44 3.45l12.73 19.1 12.72 19.1 0.15-19.1 0.14-19.1h3.25 3.26v24.73 24.74h-3.45-3.45l-12.72-19.11-12.73-19.1-0.14 19.1-0.14 19.11h-3.26-3.25v-24.74zm236.48 0v-24.73h3.26 3.26v10.05 10.06h13.05 13.04v-10.06-10.05h3.27 3.26v24.73 24.74h-3.26-3.27v-11.69-11.69h-13.04-13.05v11.69 11.69h-3.26-3.26v-24.74zm49.47 0v-24.73h3.45 3.44l12.73 19.1 12.72 19.1 0.15-19.1 0.14-19.1h3.25 3.26v24.73 24.74h-3.45-3.45l-12.72-19.11-12.73-19.1-0.14 19.1-0.14 19.11h-3.26-3.25v-24.74zm-344.2 16.05c-24.12-3.82-44.469-7.09-45.226-7.28-2.235-0.56-2.543-3.73-0.428-4.4 0.506-0.16 21.214 2.89 46.004 6.78 24.8 3.88 45.26 7.06 45.48 7.06 0.66 0 2.09 1.68 2.09 2.45 0 1.15-1.59 2.45-2.9 2.38-0.65-0.03-20.91-3.18-45.02-6.99zm-103.46-149.84c-0.48-0.48-0.735-1.31-0.567-1.84s14.182-25.68 31.141-55.88c20.109-35.82 31.189-55.02 31.839-55.21 2.63-0.75 3.47 1.08 1.9 4.16-4.01 7.88-60.586 107.92-61.467 108.69-1.338 1.17-1.74 1.19-2.846 0.08zm645 0.5c-0.45-0.13-14.03-23.86-30.18-52.72-34.24-61.23-32.46-57.95-32.04-59.04 0.44-1.17 1.75-1.59 2.93-0.96 0.98 0.53 62.55 109.76 62.55 110.98 0 0.54-1.61 2.13-2.08 2.05-0.2-0.04-0.74-0.17-1.18-0.31zm-483.29-149.4v-24.73h3.44 3.45l12.73 19.1 12.72 19.1 0.15-19.1 0.14-19.1h3.25 3.26v24.73 24.74h-3.45-3.45l-12.72-19.11-12.73-19.1-0.14 19.1-0.14 19.11h-3.26-3.25v-24.74zm49.47 0v-24.73h3.26 3.26v10.05 10.06h13.05 13.04v-10.06-10.05h3.27 3.26v24.73 24.74h-3.26-3.27v-11.69-11.69h-13.04-13.05v11.69 11.69h-3.26-3.26v-24.74zm236.48 0v-24.73h3.45 3.44l12.73 19.1 12.72 19.1 0.15-19.1 0.14-19.1h3.25 3.26v24.73 24.74h-3.45-3.45l-12.72-19.11-12.73-19.1-0.14 19.1-0.14 19.11h-3.26-3.25v-24.74zm36.19-31.02c-0.47-0.47-0.86-1.04-0.86-1.26 0-0.21-3.18-20.43-7.07-44.91-3.89-24.49-6.93-44.941-6.77-45.453 0.59-1.861 3.71-1.9 4.29-0.052 0.28 0.868 14.45 89.565 14.45 90.415 0 0.68-1.67 2.11-2.45 2.11-0.41 0-1.12-0.38-1.59-0.85zm-475.16-62c-0.557-0.55-0.741-1.28-0.51-2.01 0.457-1.44 74.065-76.757 75.425-77.184 2.18-0.678 3.53 1.013 2.44 3.05-0.79 1.469-73.571 75.754-74.948 76.484-1.303 0.7-1.382 0.69-2.407-0.34zm627.6 0.47c-1.12-0.37-74.11-75.064-74.6-76.327-0.79-2.048 0.92-3.661 2.82-2.648 1.37 0.735 73.62 74.485 74.4 75.945 0.81 1.51 0.81 1.56-0.22 2.58-0.88 0.89-1.04 0.92-2.4 0.45zm-416.68-22.21c-0.55-0.56-0.74-1.3-0.51-2.04 0.2-0.64 0.39-1.18 0.42-1.2 0.04-0.02 23.56-13.827 52.26-30.682 28.71-16.855 52.83-30.97 53.62-31.367 2.37-1.196 4.36 0.371 3.21 2.525-0.58 1.088-106.43 63.594-107.75 63.624-0.21 0.01-0.77-0.38-1.25-0.86z"/>
 <metadata>
  <rdf:RDF>
   <cc:Work>
    <dc:format>image/svg+xml</dc:format>
    <dc:type rdf:resource="http://purl.org/dc/dcmitype/StillImage"/>
    <cc:license rdf:resource="http://creativecommons.org/licenses/publicdomain/"/>
    <dc:publisher>
     <cc:Agent rdf:about="http://openclipart.org/">
      <dc:title>Openclipart</dc:title>
     </cc:Agent>
    </dc:publisher>
   </cc:Work>
   <cc:License rdf:about="http://creativecommons.org/licenses/publicdomain/">
    <cc:permits rdf:resource="http://creativecommons.org/ns#Reproduction"/>
    <cc:permits rdf:resource="http://creativecommons.org/ns#Distribution"/>
    <cc:permits rdf:resource="http://creativecommons.org/ns#DerivativeWorks"/>
   </cc:License>
  </rdf:RDF>
 </metadata>
</svg>
